X: 27
T:Golden Eagle
R:Hornpipe
O:England
O:Scotland
O:Ireland
M:4/4
L:1/8
K:F % transposed from G
(3BAG|FA,CF ACFA|cFAc fagf|edc=B _BGEC|FAGF (3EDC (3BAG|
FA,CF AcFA|cFAc fagf|edc=B _BGEC|(3FFF FE F2:|
|:(3aaa|aA^ce agfe|d^cde fef^f|gG=Bd gfed|d=cc=B c2ga|
bgec =Bcde|fefg afgf|edc=B _BGEC|(3FFF FE F2:|

